X:27
T:Glory of England,The,2parts. JNu.26
M:3/8
L:1/8
Q:3/8=50
S:James Nuttall MS,c1830?,Rossendale,East Lancs.
R:.Waltz
O:England
A:East Lancashire
Z:vmp.Manchester Morris Men
V:1
V:2 clef=bass
K:Eb
[V:1] |: B,2E | G2B | B/A/G/A/c/A/ | F2z | B,2E | F2A | A/G/F/G/B/G/ | E2z 😐
[V:2] |: E,G,B, | E,G,B, | B,,F,A, | B,,F,A, | B,,D,F, | B,,D,F, | E,,B,,E, | E,2z 😐
%
[V:1] |: Bee | ede | =efB | egb | Bee | ede | fdd | e3 😐
[V:2] |: E,E,E, | E,G,E, | B,,B,,B,, | E,E,E, | E,B,G, | E,G,E, | B,,B,,B,, | E,3 😐

